X:1
T:Clori amorosa
T:Clori amorosa
T:Giovanni Ghizzolo
C:Giovanni Ghizzolo
%%score [ 1 2 ] { 3 | 4 }
L:1/8
Q:1/4=120
M:3/4
K:F
V:1 treble nm="Soprano" snm="S"
V:2 treble-8 nm="Tenor" snm="T"
V:3 treble nm="MusicXML Part"
V:4 bass 
V:1
"^Source: Madrigali et Arie---Libro terzo---Venetia---A.Raverij---1609.\nEditor: André Vierendeels (27/12/09)\n Continuo: André Vierendeels" c2 B2 G2 | %1
w: Clo- ri'a- mo-|
w: Tu co' bei|
w: Ah' pas- to-|
 A4 A2"^ARIA" | F2 F2 E2 | F4 F2 | d2 c2 A2 | B4 B2 | G2 G2 ^F2 | G4 G2 :: d2 d2 e2 | f4 f2 | %10
w: ro- sa|d'A- mor piu|bel- la|piu dog- ni|ro- sa|ver- mi- glia'e|bel- la.|D'og- n'al- ma|stel- la|
w: lu- mi|sa- et- t'il|co- re|e lo con-|su- mi|col chiar' ar-|do- re,|On- de si|mo- re|
w: rel- la|pur non ti|pre- ghi|di cui fa-|vel- la|A'i dol- ci|prie- ghi|A'hi che le|ne- ghi|
 f2 e3 e | d4 d2 | A2 A2 B2 | c4 c2 | G2 G2 A2 | B4 B2 | B2 A3 G | G4 G2 :: c2 d4- | d2 BA cG | %20
w: piu chiar' ar-|den te|ve- ra- ce-|men- te|nel tuo bel|vi- so|sta'l mio cor|fi- so,|sta'l mio|_ cor _ _ _|
w: quest' al- ma|mi- a|se dol- ce|pi- a|non porg' a-|i- ta|a la mia|vi- ta.|a la|_ mia _ _ _|
w: al mio lan-|gui- re|an- zi'al mo-|ri- re|bre- ve con-|for- to|res- te- ro|mor- to,|res- te-|* ro _ _ _|
 A6 | G6 |] %22
w: fi-|so.|
w: vi-|ta.|
w: mor-|to.|
V:2
 F2 G2 E2 | F4 F2 | A2 B2 c2 | F4 F2 | B2 A2 F2 | G4 G2 | B2 c2 d2 | G4 G2 :: G2 F2 E2 | D4 D2 | %10
w: Clo- ri'a- mo-|ro- sa|d'A- mr piu|bel- la|piu d'og- ni|ro- sa|ver- mi- glia'e|bel- la.|D'og- n'al- ma|stel- la|
w: Tu co' bei|lu- mi|sa- et- t'il|co- re|e lo con-|su- mi|col chiar' ar-|do- re,|On- de si|mo- re|
w: Ah' pas- to-|rel- la|pur non ti|pre- ghi|di cui fa-|vel- la|A'i dol- ci|prie- ghi,|A'hi che le|ne- ghi|
 D2 A3 A | D4 D2 | d2 c2 B2 | A4 A2 | c2 B2 A2 | G4 G2 | G2 d3 d | G4 G2 :: A2 B2 c2 | d6 | D6 | %21
w: piu chiar' ar-|den- te|ve- ra- ce-|men- te|nel tuo bel|vi- so|sta'l mio cor|fi- so,|Sta'l mio cor|fi-||
w: quest' al- ma|mi- a|se dol- ce|pi- a|non porg' a-|i- ta|a la mia|vi- ta,|a la mia|vi-||
w: al mio lan-|gui- re|an- zi'al mo-|ri- re|bre- ve con-|for- to|es- te- ro|mor- to,|res- te- ro|mor-||
 G6 |] %22
w: so.|
w: a.|
w: to.|
V:3
 [FAc]2 [DGB]2 [CG]2 | [Ac]6 | [CE]2 [DF]2 [EG]2 | [FAc]6 | [FB]2 [FA]2 [Fc]2 | [DGB]6 | %6
 [DG]2 [EG]2 [^FA]2 | [DG=B]6 :: [GB]2 [FA]2 [Gc]2 | [FA]6 | [FA]2 [A^c]4 | [^FA]6 | %12
 [FA]2 [CA]2 [DG]2 | [EA]6 | [Ec]2 [DG]2 [D^F]2 | [DGB]6 | [DG]2 [D^FA]4 | [DG=B]6 :: %18
 [FAc]2 [DG]2 [EG]2 | %19
 [FA]2 [DF]2 [DG]2"^Del dolc'amore\nDi tua bellezza\nFa specchio al core\nCh'empio disprezza\nPiendi fierezza\nPene, e martiri\nPianti, e sospiri\nD'un alma amore\nFida, e constante." | %20
 [D^FA]6"^Vederai per prova\nChe n tuoi lumi\nL'ardori si trova\nSe i tuoi costumi\nFan che cnsumi\nOgn'alma in terra\nE s'apra guerra\nLi fa' l'tuo viso\nE' l'dolce riso." | %21
 [DG=B]6 |] %22
V:4
 F,2 G,2 E,2 | F,4 F,,2 | A,,2 B,,2 C,2 | F,,4 F,,2 | B,,2 A,,2 F,,2 | G,,4 G,,2 | B,,2 C,2 D,2 | %7
 G,,4 G,,2 :: G,2 F,2 E,2 | D,4 D,2 | D,2 A,,3 A,, | D,4 D,2 | %12
"^Tu pur t'adiri\nCruda, e sdegnosa\nTacci, e sospiri\nDolce, e pietosa\nOnd'amorosa\nNon voi ch'io pera\nE cruda, e fiera\nTal'hor'consenta\nMorte,e tormenti." D,2 C,2 B,,2 | %13
 A,,4 A,,2 | C,2 B,,2 A,,2 | G,,4 G,,2 | G,,2 D,3 D, | G,,4 G,,2 :: %18
 A,,2 B,,2"^Notes: Original keys: Ut 1st, Ut 4rth.\n            Basso continuo not in original print" C,2 | %19
 D,6 | D,6 | G,,6 |] %22

